svg/color/bonk.svg

<svg width="64" height="65" viewBox="0 0 64 65" fill="none" xmlns="http://www.w3.org/2000/svg">
<g clip-path="url(#clip0_11313_1948)">
<rect y="0.303711" width="64" height="64" rx="32" fill="#FDDE00"/>
<path d="M16.4251 22.9287C16.4251 22.9287 14.7751 25.0162 15.3251 34.4537C15.3251 34.4537 11.7126 43.7037 12.9376 48.4287C14.1626 53.1412 18.9376 52.9037 18.9376 52.9037C18.9376 52.9037 26.6001 59.6412 32.4751 53.7037C38.3626 47.7537 27.5751 24.7162 27.5751 24.7162L26.2251 16.7537C26.2251 16.7537 24.7501 17.9162 24.9376 25.5787C25.1251 33.2412 21.9376 27.8412 21.9376 27.8412L16.4251 22.9287Z" fill="#3C2D0C"/>
<path d="M17.0375 31.2662L15.0125 36.9662L14.275 40.9537C14.275 40.9537 11.7625 49.8412 22.125 49.7162C22.125 49.7162 30.2125 56.9537 35.4875 52.1037L36.9 50.5662L39.35 46.7662L43.4 34.6912C43.4 34.6912 42.1125 26.4162 33.9625 22.9912C33.9625 22.9912 33.2875 22.6287 32.0625 23.1162C32.0625 23.1162 28.6875 15.5162 26.55 16.4412C26.55 16.4412 24.7125 17.4162 26.3 24.9037L23.425 26.1912C23.425 26.1912 20.275 20.2162 17.3625 21.4162C14.65 22.5037 17.0375 31.2662 17.0375 31.2662Z" fill="#E78C19"/>
<path d="M27.5126 20.1662L27.7626 23.4787C27.7626 23.4787 27.9501 25.3787 29.9626 24.7037C30.5376 24.5162 31.0376 24.1162 30.9876 23.4662C30.9501 22.9787 30.6126 22.5287 30.3876 22.1162C29.9751 21.3287 29.6376 20.4912 29.1501 19.7287C28.9001 19.3412 28.3876 18.4787 27.8251 18.5787C27.8251 18.5787 27.4001 18.4537 27.5126 20.1662Z" fill="#EFB99D"/>
<path d="M18.6625 23.8912C18.7 23.8662 19.525 22.8287 21.2375 25.3537C22.95 27.8787 22.775 27.5537 22.775 27.5537C22.775 27.5537 23.7 28.5662 21.8125 29.8662C21.4 30.1662 20.95 30.4162 20.475 30.6162C20.175 30.7287 19.8625 30.7912 19.55 30.7912C19.1875 30.7787 19.025 30.5912 18.9375 30.2537C18.65 29.1537 18.325 28.0537 18.1625 26.9287C18.0375 26.0537 17.7875 24.4537 18.6625 23.8912Z" fill="#EFB99D"/>
<path d="M38.5625 28.9787C38.5625 29.5787 37.6874 30.0662 36.5999 30.0662C35.5124 30.0662 34.6375 29.5787 34.6375 28.9787C34.6375 28.3787 35.5374 27.4912 36.6124 27.4912C37.6874 27.4912 38.5625 28.3787 38.5625 28.9787Z" fill="#FBFBFB"/>
<path d="M27.2444 33.6739C27.8258 32.6465 27.7613 31.5104 27.1004 31.1364C26.4395 30.7624 25.4325 31.2921 24.8511 32.3195C24.2697 33.3469 24.3341 34.4829 24.995 34.8569C25.6559 35.2309 26.663 34.7013 27.2444 33.6739Z" fill="#FBFBFB"/>
<path d="M30.025 38.6412L35.3875 35.8537C35.3875 35.8537 42.0625 32.3662 43.6875 35.0537C45.3125 37.7412 43.6875 41.8537 43.6875 41.8537C43.6875 41.8537 42.9875 46.6662 38.075 47.0912L35.4375 47.4537L32.0625 47.5412C32.0625 47.5412 26.6375 47.8537 22.65 44.9037L21.3875 43.3662C21.3875 43.3662 18.85 39.8787 20.625 37.3662C22.4 34.8537 28.475 38.7412 28.475 38.7412C28.475 38.7412 29.325 39.2037 30.025 38.6412Z" fill="#FBFBFB"/>
<path d="M42.1874 24.7412C42.8985 24.7412 43.4749 24.1648 43.4749 23.4537C43.4749 22.7426 42.8985 22.1662 42.1874 22.1662C41.4763 22.1662 40.8999 22.7426 40.8999 23.4537C40.8999 24.1648 41.4763 24.7412 42.1874 24.7412Z" fill="#E72D36"/>
<path d="M39.3376 21.5787C40.0486 21.5787 40.625 21.0023 40.625 20.2912C40.625 19.5802 40.0486 19.0037 39.3376 19.0037C38.6265 19.0037 38.05 19.5802 38.05 20.2912C38.05 21.0023 38.6265 21.5787 39.3376 21.5787Z" fill="#E72D36"/>
<path d="M34.7751 20.5662C35.4861 20.5662 36.0625 19.9898 36.0625 19.2787C36.0625 18.5676 35.4861 17.9912 34.7751 17.9912C34.064 17.9912 33.4875 18.5676 33.4875 19.2787C33.4875 19.9898 34.064 20.5662 34.7751 20.5662Z" fill="#E72D36"/>
<path d="M35.7875 10.1537C36.0625 13.9537 35.5125 17.3912 34.5875 17.3912C33.6625 17.3912 32.4375 13.6787 32.4375 10.1537C32.4375 8.70369 33.2 8.46619 34.125 8.46619C35.0625 8.46619 35.6875 8.70369 35.7875 10.1537Z" fill="#E72D36"/>
<path d="M44.3125 12.5162C42.9125 16.0537 40.925 18.9162 40.1 18.5162C39.275 18.1162 39.775 14.2412 41.3125 11.0662C41.95 9.7537 42.7375 9.8787 43.5625 10.2787C44.3875 10.6912 44.85 11.1662 44.3125 12.5162Z" fill="#E72D36"/>
<path d="M50.4125 19.4162C47.325 21.6537 44.125 23.0037 43.6375 22.2162C43.15 21.4287 45.6625 18.4412 48.65 16.5787C49.8875 15.8162 50.4875 16.3412 50.975 17.1162C51.45 17.9037 51.5875 18.5537 50.4125 19.4162Z" fill="#E72D36"/>
<path d="M29.7751 34.9037C29.6626 34.9162 29.5501 34.9287 29.4376 34.9412C29.4501 34.9787 29.4626 35.0162 29.4626 35.0662C29.4626 35.4537 28.8501 35.7787 28.0876 35.8037C28.0876 35.8412 28.0751 35.8662 28.0876 35.9037C28.1251 36.3787 28.9501 36.7037 29.9126 36.6287C30.8876 36.5537 31.6501 36.1037 31.6126 35.6287C31.5626 35.1537 30.7501 34.8287 29.7751 34.9037Z" fill="black"/>
<path d="M36.55 33.2287C36.4375 33.2412 36.325 33.2537 36.2125 33.2662C36.225 33.3037 36.2375 33.3412 36.2375 33.3912C36.2375 33.7787 35.625 34.1037 34.8625 34.1287C34.8625 34.1662 34.85 34.1912 34.8625 34.2287C34.9 34.7037 35.725 35.0287 36.6875 34.9537C37.6625 34.8787 38.425 34.4287 38.3875 33.9537C38.35 33.4787 37.525 33.1537 36.55 33.2287Z" fill="black"/>
<path d="M38.775 35.2162C38.775 35.2162 36.0875 36.0037 36.25 37.5162C36.4125 39.0287 39.65 39.8162 39.65 39.8162C39.65 39.8162 40.525 40.1662 41.025 39.3287C41.525 38.5037 42.2625 37.3787 42.0625 35.7662C42.0625 35.7662 42 34.5662 38.775 35.2162Z" fill="black"/>
</g>
<rect x="0.5" y="0.803711" width="63" height="63" rx="31.5" stroke="#070B14" stroke-opacity="0.15"/>
<defs>
<clipPath id="clip0_11313_1948">
<rect y="0.303711" width="64" height="64" rx="32" fill="white"/>
</clipPath>
</defs>
</svg>

<svg xmlns="http://www.w3.org/2000/svg" width="64" height="65" fill="none" viewBox="0 0 64 65"><g clip-path="url(#bonk_svg-a)"><rect width="64" height="64" y=".304" fill="#FDDE00" rx="32"/><path fill="#3C2D0C" d="M16.425 22.929s-1.65 2.087-1.1 11.525c0 0-3.612 9.25-2.387 13.975 1.225 4.712 6 4.475 6 4.475s7.662 6.737 13.537.8c5.888-5.95-4.9-28.988-4.9-28.988l-1.35-7.962s-1.475 1.162-1.287 8.825c.187 7.662-3 2.262-3 2.262z"/><path fill="#E78C19" d="m17.038 31.266-2.026 5.7-.737 3.988s-2.513 8.887 7.85 8.762c0 0 8.087 7.238 13.362 2.388l1.413-1.538 2.45-3.8 4.05-12.075s-1.288-8.275-9.437-11.7c0 0-.675-.362-1.9.125 0 0-3.376-7.6-5.513-6.675 0 0-1.838.975-.25 8.463l-2.875 1.287s-3.15-5.975-6.062-4.775c-2.713 1.088-.325 9.85-.325 9.85"/><path fill="#EFB99D" d="m27.513 20.166.25 3.313s.187 1.9 2.2 1.225c.575-.188 1.075-.588 1.025-1.238-.038-.487-.375-.937-.6-1.35-.413-.787-.75-1.625-1.238-2.387-.25-.388-.762-1.25-1.325-1.15 0 0-.425-.125-.312 1.587m-8.85 3.725c.037-.025.862-1.062 2.575 1.463 1.712 2.525 1.537 2.2 1.537 2.2s.925 1.012-.962 2.312c-.413.3-.863.55-1.338.75a2.6 2.6 0 0 1-.925.175c-.363-.012-.525-.2-.613-.537-.287-1.1-.612-2.2-.774-3.325-.125-.875-.375-2.475.5-3.038"/><path fill="#FBFBFB" d="M38.563 28.979c0 .6-.876 1.087-1.963 1.087s-1.962-.487-1.962-1.087.9-1.488 1.974-1.488c1.075 0 1.95.888 1.95 1.488m-11.318 4.695c.582-1.027.517-2.164-.144-2.538-.66-.374-1.668.156-2.249 1.183s-.517 2.164.144 2.538c.66.374 1.668-.156 2.25-1.183m2.78 4.967 5.363-2.787s6.675-3.488 8.3-.8c1.624 2.687 0 6.8 0 6.8s-.7 4.812-5.613 5.237l-2.638.363-3.374.087s-5.426.313-9.413-2.637l-1.262-1.538s-2.538-3.487-.763-6 7.85 1.375 7.85 1.375.85.463 1.55-.1"/><path fill="#E72D36" d="M42.187 24.741a1.287 1.287 0 1 0 0-2.575 1.287 1.287 0 0 0 0 2.575m-2.849-3.162a1.287 1.287 0 1 0 0-2.575 1.287 1.287 0 0 0 0 2.575m-4.563-1.013a1.287 1.287 0 1 0 0-2.575 1.287 1.287 0 0 0 0 2.575m1.013-10.412c.275 3.8-.275 7.237-1.2 7.237s-2.15-3.712-2.15-7.237c0-1.45.762-1.688 1.687-1.688.938 0 1.563.238 1.663 1.688m8.525 2.362c-1.4 3.538-3.388 6.4-4.213 6s-.325-4.275 1.212-7.45c.638-1.312 1.425-1.187 2.25-.787.826.412 1.288.887.75 2.237m6.101 6.9c-3.088 2.238-6.288 3.588-6.775 2.8-.488-.787 2.025-3.775 5.012-5.637 1.238-.763 1.837-.238 2.325.537.475.788.612 1.438-.562 2.3"/><path fill="#000" d="m29.775 34.904-.337.037c.012.038.025.075.025.125 0 .388-.613.713-1.375.738 0 .037-.013.062 0 .1.037.475.862.8 1.825.725.975-.075 1.737-.525 1.7-1-.05-.475-.863-.8-1.838-.725m6.775-1.675-.337.037a.4.4 0 0 1 .024.125c0 .388-.612.713-1.375.738 0 .037-.012.062 0 .1.038.475.863.8 1.825.725.976-.075 1.738-.525 1.7-1-.037-.475-.862-.8-1.837-.725m2.225 1.987s-2.687.788-2.525 2.3c.163 1.513 3.4 2.3 3.4 2.3s.875.35 1.375-.487c.5-.825 1.238-1.95 1.038-3.563 0 0-.063-1.2-3.288-.55"/></g><rect width="63" height="63" x=".5" y=".804" stroke="#070B14" stroke-opacity=".15" rx="31.5"/><defs><clipPath id="bonk_svg-a"><rect width="64" height="64" y=".304" fill="#fff" rx="32"/></clipPath></defs></svg>
